X: 64
M: 3/4
L: 1/8
K: G	% Mostly G, with endings in Em.
|:\
d3 c (BA) | G3 A G2 | A3 G A2 | B2 e4 |
d3 c (BA) | G3 A B2 | B3 A B2 | E6 ::
(B3 c) d2 | B2 e2 ^d2 | e3 f g | B3 A B2 |
E6 :|
K:

